svg/folder-f.svg

<svg xmlns="http://www.w3.org/2000/svg" viewBox="0 0 64 50" enable-background="new 0 0 64 50"><style type="text/css">.st0{fill:#333333;}</style><title>folder-f</title><desc>Created with Sketch.</desc><path class="st0" d="M0 48c0 1.1.9 2 2 2h60c1.1 0 2-.9 2-2v-28h-64v28zM62 7h-38v-5c0-1.1-.9-2-2-2h-20c-1.1 0-2 .9-2 2v14h64v-7c0-1.1-.9-2-2-2z"/></svg>

<?xml version="1.0" encoding="utf-8"?>
<!-- Generator: Adobe Illustrator 21.0.0, SVG Export Plug-In . SVG Version: 6.00 Build 0)  -->
<svg version="1.1" id="Layer_1" xmlns="http://www.w3.org/2000/svg" xmlns:xlink="http://www.w3.org/1999/xlink" x="0px" y="0px"
	 viewBox="0 0 64 50" style="enable-background:new 0 0 64 50;" xml:space="preserve">
<style type="text/css">
	.st0{fill:#333333;}
</style>
<title>folder-f</title>
<desc>Created with Sketch.</desc>
<g>
	<path class="st0" d="M0,48c0,1.1,0.9,2,2,2h60c1.1,0,2-0.9,2-2V20H0V48z"/>
	<path class="st0" d="M62,7H24V2c0-1.1-0.9-2-2-2H2C0.9,0,0,0.9,0,2v8v6h64V9C64,7.9,63.1,7,62,7z"/>
</g>
</svg>
